X:1
T:Sommervise
T:Sommervise
T:H. Ibsen
T:Norsk folkemelodi
C:Norsk folkemelodi
%%score [ 1 2 3 4 ]
L:1/8
Q:1/4=80
M:3/4
K:F
V:1 treble nm="Soprano"
V:2 treble nm="Alto"
V:3 treble-8 nm="Tenor"
V:4 bass nm="Bass"
V:1
!mf!"^Allegretto" c | c3/2 d/ c2 c3/2 A/ | B3/2 B/ A2 z c | B3/2 d/ d3/2 c/ c3/2 E/ | G2 F2 z c | %5
w: 1.Vi|er en li- den, men|livs- glad flok med|mod og ung- doms- fri- ske|tan- ker; bag|
w: 2.Lad|li- vet tru- e med|ve og værk, den|svar- te al- ve- flok vi|skræm- mer, vi|
 c3/2 d/ c- c c3/2 A/ | B3/2 B/ A2 z c | B3/2 d/ d3/2 c/ c3/2 E/ | G2 F2 z!p! F | %9
w: stu- e- væg- * gen vi|læn- ge nok laa|in- de- fros- sen og for|an- ker. Nu|
w: har en læ- ge- dom saa|mild og stærk, med|hel- se- bod for sjæl og|lem- mer. De|
 E3/2 F/ G3/2 G/ A3/2 c/ | B3/2 B/ A2 z F | E3/2 F/ G3/2 G/ A3/2 c/ | B3/2 B/ A2!mf! !>!c2 | %13
w: er der som- mer o- ver|bygd og kyst, og|der er som- mer- glæ- de|i vort bryst, se|
w: go- de aan- der er med|os i pagt, mod|fien- de- lei- ren gaar vi|u- for- sagt, med|
 B3/2 B/ A2"^cresc." !>!c2 | B3/2 B/ A3!f! c | B3/2 d/ d3/2 c/ c3/2 E/ | G2 F2 z |] %17
w: fjor- den blaa, af-|sted vi maa at|drik- ke luft blandt blom- ster-|ran- ker.|
w: lan- sen fældt, frem-|ad som helt med|sei- ers- krans af fri- ske|stem- mer.|
V:2
!mf! F | F3/2 F/ F2 F3/2 F/ | F3/2 F/ F2 z G | F3/2 F/ F3/2 F/ E3/2 C/ | C2 C2 z F | %5
w: 1.Vi|er en li- den, men|livs- glad flok med|mod og ung- doms- fri- ske|tan- ker; bag|
w: 2.Lad|li- vet tru- e med|ve og værk, den|svar- te al- ve- flok vi|skræm- mer, vi|
 F3/2 F/ E- E _E3/2 E/ | D3/2 =E/ F2 z D | D3/2 D/ F3/2 F/ E3/2 C/ | C2 C2 z!p! C | %9
w: stu- e- væg- * gen vi|læn- ge nok laa|in- de- fros- sen og for|an- ker. Nu|
w: har en læ- ge- dom saa|mild og stærk, med|hel- se- bod for sjæl og|lem- mer. De|
 C3/2 C/ E3/2 E/ F3/2 F/ | E3/2 E/ F2 z C | C3/2 C/ C3/2 C/ F3/2 D/ | D3/2 E/ F2!mf! !>!F2 | %13
w: er der som- mer o- ver|bygd og kyst, og|der er som- mer- glæ- de|i vort bryst, se|
w: go- de aan- der er med|os i pagt, mod|fien- de- lei- ren gaar vi|u- for- sagt, med|
 E3/2 E/ F2"^cresc." !>!F2 | E3/2 E/ F3!f! F | F3/2 F/ F3/2 F/ E3/2 C/ | C2 C2 z |] %17
w: fjor- den blaa, af-|sted vi maa at|drik- ke luft blandt blom- ster-|ran- ker.|
w: lan- sen fældt, frem-|ad som helt med|sei- ers- krans af fri- ske|stem- mer.|
V:3
!mf! A | A3/2 B/ A2 A3/2 c/ | d3/2 _d/ c2 z c | F3/2 B/ A3/2 A/ G3/2 B/ | B2 A2 z c | %5
w: 1.Vi|er en li- den, men|livs- glad flok med|mod og ung- doms- fri- ske|tan- ker; bag|
w: 2.Lad|li- vet tru- e med|ve og værk, den|svar- te al- ve- flok vi|skræm- mer, vi|
 c3/2 =B/ _B- B A3/2 c/ | B3/2 G/ F2 z ^F | G3/2 G/ A3/2 A/ G3/2 B/ | B2 A2 z!p! c | %9
w: stu- e- væg- * gen vi|læn- ge nok laa|in- de- fros- sen og for|an- ker. Nu|
w: har en læ- ge- dom saa|mild og stærk, med|hel- se- bod for sjæl og|lem- mer. De|
 c3/2 c/ c3/2 c/ c3/2 c/ | c3/2 c/ c2 z A | B3/2 A/ G3/2 G/ F3/2 A/ | G3/2 c/ c2!mf! !>!c2 | %13
w: er der som- mer o- ver|bygd og kyst, og|der er som- mer- glæ- de|i vort bryst, se|
w: go- de aan- der er med|os i pagt, mod|fien- de- lei- ren gaar vi|u- for- sagt, med|
 c3/2 c/ c2"^cresc." !>!c2 | c3/2 c/ c3!f! A | B3/2 B/ A3/2 A/ G3/2 B/ | B2 A2 z |] %17
w: fjor- den blaa, af-|sted vi maa at|drik- ke luft blandt blom- ster-|ran- ker.|
w: lan- sen fældt, frem-|ad som helt med|sei- ers- krans af fri- ske|stem- mer.|
V:4
!mf! F, | F,3/2 F,/ F,2 F,3/2 F,/ | F,3/2 F,/ F,2 z E, | D,3/2 B,,/ C,3/2 C,/ C,3/2 C,/ | %4
w: 1.Vi|er en li- den, men|livs- glad flok med|mod og ung- doms- fri- ske|
w: 2.Lad|li- vet tru- e med|ve og værk, den|svar- te al- ve- flok vi|
 F,2 F,2 z A, | A,3/2 _A,/ G,- G, ^F,3/2 F,/ | G,3/2 ^C,/ D,2 z D, | %7
w: tan- ker; bag|stu- e- væg- * gen vi|læn- ge nok laa|
w: skræm- mer, vi|har en læ- ge- dom saa|mild og stærk, med|
 G,3/2 B,,/ C,3/2 C,/ C,3/2 C,/ | E,2 F,2 z!p! A, | B,3/2 A,/ G,3/2 C,/ F,3/2 A,/ | %10
w: in- de- fros- sen og for|an- ker. Nu|er der som- mer o- ver|
w: hel- se- bod for sjæl og|lem- mer. De|go- de aan- der er med|
 G,3/2 C,/ F,2 z A, | G,3/2 F,/ E,3/2 E,/ F,3/2 ^F,/ | G,3/2 C,/ =F,2!mf! !>!A,2 | %13
w: bygd og kyst, og|der er som- mer- glæ- de|i vort bryst, se|
w: os i pagt, mod|fien- de- lei- ren gaar vi|u- for- sagt, med|
 G,3/2 C,/ F,2"^cresc." !>!A,2 | G,3/2 C,/ F,3!f! _E, | D,3/2 B,,/ C,3/2 C,/ C,3/2 C,/ | %16
w: fjor- den blaa, af-|sted vi maa at|drik- ke luft blandt blom- ster-|
w: lan- sen fældt, frem-|ad som helt med|sei- ers- krans af fri- ske|
 F,2 F,2 z |] %17
w: ran- ker.|
w: stem- mer.|

